lib/functional/system&devices/battery-charging.svg

<svg xmlns="http://www.w3.org/2000/svg" fill="none" stroke="currentColor" aria-hidden="true" viewBox="0 0 32 32"><g id="Icon-BatteryCharging"><g clip-path="url(#clip0_9_1889)"><g id="size=md (32px)"><g id="BatteryCharging"><path id="Vector" stroke-linecap="round" stroke-linejoin="round" stroke-width="2" d="M31 12V20"/><path id="Vector_2" stroke-linecap="round" stroke-linejoin="round" stroke-width="2" d="M27 23V9C27 7.89543 26.1046 7 25 7L6 7C4.89543 7 4 7.89543 4 9V23C4 24.1046 4.89543 25 6 25H25C26.1046 25 27 24.1046 27 23Z"/><path id="Vector_3" stroke-linecap="round" stroke-linejoin="round" stroke-width="2" d="M15.5 21L17.5 16H13.5L15.5 11"/></g></g></g></g><defs><clipPath id="clip0_9_1889"><rect width="32" height="32" fill="white" rx="5"/></clipPath></defs></svg>

<svg xmlns="http://www.w3.org/2000/svg" fill="none" stroke="currentColor" aria-hidden="true" viewBox="0 0 32 32"><g stroke="#101828" stroke-linecap="round" stroke-linejoin="round" stroke-width="2" clip-path="url(#a)"><path d="M31 12v8m-4 3V9a2 2 0 0 0-2-2H6a2 2 0 0 0-2 2v14a2 2 0 0 0 2 2h19a2 2 0 0 0 2-2Z"/><path d="m15.5 21 2-5h-4l2-5"/></g><defs><clipPath id="a"><rect width="32" height="32" fill="#fff" rx="5"/></clipPath></defs></svg>
